fs/table_cells_merge_24_regular.svg

<svg viewBox="0 0 24 24" fill="none" xmlns="http://www.w3.org/2000/svg" height="1em" width="1em">
  <path d="M15.5799 11.25H8.42014L9.31056 10.2483C9.58575 9.93869 9.55786 9.46464 9.24827 9.18945C8.93869 8.91426 8.46463 8.94215 8.18944 9.25174L6.18944 11.5017C5.93685 11.7859 5.93685 12.2141 6.18944 12.4983L8.18944 14.7483C8.46463 15.0579 8.93869 15.0858 9.24827 14.8106C9.55786 14.5354 9.58575 14.0613 9.31056 13.7517L8.42013 12.75H15.5799L14.6895 13.7517C14.4143 14.0613 14.4422 14.5354 14.7517 14.8106C15.0613 15.0858 15.5354 15.0579 15.8106 14.7483L17.8106 12.4983L17.8211 12.4861C17.9264 12.3626 17.9923 12.2045 17.9994 12.0313C18.0002 12.0112 18.0002 11.991 17.9995 11.9709C17.9925 11.7899 17.9215 11.6254 17.8084 11.4993L15.8106 9.25174C15.5354 8.94215 15.0613 8.91426 14.7517 9.18945C14.4422 9.46464 14.4143 9.93869 14.6895 10.2483L15.5799 11.25ZM6.25 3C4.45507 3 3 4.45507 3 6.25V17.75C3 19.5449 4.45507 21 6.25 21H17.75C19.5449 21 21 19.5449 21 17.75V6.25C21 4.45507 19.5449 3 17.75 3H6.25ZM4.5 6.25C4.5 5.2835 5.2835 4.5 6.25 4.5H17.75C18.7165 4.5 19.5 5.2835 19.5 6.25V6.5H4.5V6.25ZM4.5 8H19.5V16H4.5V8ZM19.5 17.5V17.75C19.5 18.7165 18.7165 19.5 17.75 19.5H6.25C5.2835 19.5 4.5 18.7165 4.5 17.75V17.5H19.5Z" fill="#212121"/>
</svg>

<svg viewBox="0 0 24 24" fill="none" xmlns="http://www.w3.org/2000/svg" height="1em" width="1em">
  <path d="M15.58 11.25H8.42l.89-1.002a.75.75 0 0 0-1.12-.996l-2 2.25a.75.75 0 0 0 0 .996l2 2.25a.75.75 0 1 0 1.12-.996l-.89-1.002h7.16l-.89 1.002a.75.75 0 0 0 1.12.996l2-2.25.011-.012a.746.746 0 0 0-.013-.987l-1.997-2.247a.75.75 0 0 0-1.121.996l.89 1.002ZM6.25 3A3.25 3.25 0 0 0 3 6.25v11.5A3.25 3.25 0 0 0 6.25 21h11.5A3.25 3.25 0 0 0 21 17.75V6.25A3.25 3.25 0 0 0 17.75 3H6.25ZM4.5 6.25c0-.966.784-1.75 1.75-1.75h11.5c.966 0 1.75.784 1.75 1.75v.25h-15v-.25ZM4.5 8h15v8h-15V8Zm15 9.5v.25a1.75 1.75 0 0 1-1.75 1.75H6.25a1.75 1.75 0 0 1-1.75-1.75v-.25h15Z" fill="#212121"/>
</svg>
